X:15
T: Roxbrough Castle
M: 4/4
L: 1/8
K: A
E2|"A"A2 Ac  ecAc |"D"d2 df  "A"ecAc |"D"d2 fd "A"c2 ec |"E"B2B2 "E7"BdcB |
"A"A2 Ac  ecAc |"D"dcdf  "A"ec A2| "A"agaf  "E7"edcB |"A"c2A2A2::  
(3(e/f/g/) | "A"aece  fece | aece  fedc |"D"d2 fd "A"c2 ec |"E"B2B2 "E7"BdcB |
"A"A2 Ac  ecAc | "D"dcdf  "A"ec A2| "A"agaf  "E7"edcB |"A"c2A2A2:| 

%%newpage

